X:1
T:Title
%%score { ( 1 3 ) | 2 }
L:1/8
Q:1/4=100
M:4/4
K:Eb
V:1 treble nm="Grand Piano"
V:3 treble 
V:2 bass 
V:1
 GG_G=G [GB][EG][Gc][EG] | [GB]2 [FA]2 z B, B,2 | %2
w: Charles~H.~Gabriel * * * * * * *||
 [B,FA][B,FA][B,=EG][B,FA] [DAc][B,DF][B,_DE][B,=DF] | [EB]2 z2 [GB]4 | GG_G=G BG[=Ec][EG] | %5
w: |||
 [GB]2 A2 G2 FF | B[AB][GB][EB] [DB][CDA][B,DG][A,DF] | E6 z2 | [Ge][Ge][Gd][Gc] [Ge][Ge][Gd][Gc] | %9
w: ||||
 [Ad]2 [FA]2 [FA]4 | [FAd][FAd][DAc][DAB] [FAd][FAd][DAc][DAB] | [Gc]2 G2 z4 | BBcG BB[=Ec][EG] | %13
w: ||||
 [GB]2 A2 G2 FF | B[AB][GB][EB] [DB][CDA][B,DG][A,DF] |[M:8/4] E8 z8 |] %16
w: |||
V:2
 [E,B,E][E,B,E][E,=A,E][E,B,E] [E,E][E,B,][E,E][E,B,] | [B,,B,][B,,B,] [B,,B,]2 [B,,B,]B,, B,,2 | %2
 B,,B,,B,,B,, B,,B,,B,,A, | G,G, F,2 E,E, E,2 | %4
 [E,B,E][E,B,E][E,=A,E][E,B,E] [E,G,E][E,B,E][C,A,][C,C] | [F,C]2 [F,CF]2 [G,C=E]2 [A,C][A,C] | %6
 [G,B,E][F,D][E,E][E,G,] [B,,F,]B,,B,,B,, | [E,G,]2 [E,A,][E,A,] [E,G,]2 z2 | %8
 [E,B,][E,B,][E,B,][E,B,] [E,B,][E,B,][E,B,][E,B,] | [F,B,]F,B,B,, D,F, B,2 | %10
 B,,B,,B,,B,, B,,B,,B,,B,, | E,E, .[G,B,E]2 [E,B,E]4 | %12
 [E,G,E][E,G,E][E,G,E][E,B,E] [E,G,E][E,G,E][C,G,][C,C] | [F,C]2 [F,CF]2 [G,C=E]2 [A,C][A,C] | %14
 [G,B,E][F,D][E,E][E,G,] [B,,F,]B,,B,,B,, |[M:8/4] [E,G,]2 [E,A,][E,A,] .[E,G,]4 z8 |] %16
V:3
 x8 | z4 [DF]4 | x8 | B,B, [DAB]2 EE E2 | x8 | x8 | x8 | z2 CC B,2 z2 | x8 | z B, z B, B,C D2 | %10
 x8 | EE z B, G4 | x8 | x8 | x8 |[M:8/4] z2 CC .B,4 z8 |] %16

